X: 27843
T: Mother's
R: reel
M: 4/4
K: Cmajor
gf|e2 ed cBcA|GAGF EGFE|DGBG dGBG|DGBd gagf|
e2 ed cBcA|GAGF EGFE|DGBG dGAB|cedB c2:|
Bc|d2 d^c de^fg|d2 d^c de^fg|B2 Bc BAGA|BcBA B2 Bc|
d2 d^c de^fg|d2 d^c de^fg|abag ^fdef|gag^f g2:|
db|c2 ec gcea|ggec BcdB|c2 ec ecea|ggec BcdB|
c2 ec gcea|ggec BcdB|c2 ec ecea|ggec Bc:|

